X:4
T:Glean Eoghan
S:Sean Gavin
R:reel
M:4/4
L:1/8
K:G
F2DF ABAG | FDFG A2d2 | FEDF ABAG | GFEF GBAG |
F2DF ABAG | FDFG A2d2 | FEDF ABAG | GFEF G2Bc ||
(3dcB BA BGFG | BdBc A2Bc | (3dcB BA BGFG | AdcA G2Bc |
(3dcB BA BGFG | ABd2 efge | dBcA BGG2 | AdcA G4 ||
fdd2 fdd2 | fefg abag | fdd2 fdd2 | edef gbag |
fdd2 fdd2 | fefg abag | fdd2 fdd2 | edef g4 ||

